X:203
T:Crabs in the Skillet
R:jig
M:6/8
L:1/8
K:Gm
|:DGG ABc|cdB c3|Add cBA|dcB AGF|
D2 G ABc|cdB c3|cAc fed|1cAF G2 F:|2cAF GBd||
|:g3 g3|fag fed|cde fed|cde fed|
[BD]gg gag|(3fga g fed|cde fed|1cAF GBd:|2cAF GDB,||
|:G,B,D GBd|c3 dcA|B3 Adc|AGF DCB,|
G,B,D GBd|c3 dcA|B3 Adc|1AGF G2 G,:|AGF G2 D||
